assets/icons/24px/outline/display-zoom-24px.svg

<svg width="24" height="24" viewBox="0 0 24 24" fill="none" xmlns="http://www.w3.org/2000/svg">
<path d="M12.4142 20.4142L13.1213 21.1213L12.4142 20.4142ZM3.58579 20.4142L2.87868 21.1213L3.58579 20.4142ZM12.4142 11.5858L11.7071 12.2929L12.4142 11.5858ZM7 12H9V10H7V12ZM4 17V15H2V17H4ZM9 20H7V22H9V20ZM12 15V17H14V15H12ZM9 22C9.91454 22 10.701 22.0021 11.3278 21.9179C11.9833 21.8297 12.6117 21.631 13.1213 21.1213L11.7071 19.7071C11.631 19.7832 11.495 19.8774 11.0613 19.9357C10.5988 19.9979 9.97108 20 9 20V22ZM12 17C12 17.9711 11.9979 18.5988 11.9357 19.0613C11.8774 19.495 11.7832 19.631 11.7071 19.7071L13.1213 21.1213C13.631 20.6117 13.8297 19.9833 13.9179 19.3278C14.0021 18.701 14 17.9145 14 17H12ZM2 17C2 17.9145 1.99788 18.701 2.08214 19.3278C2.17027 19.9833 2.36902 20.6117 2.87868 21.1213L4.29289 19.7071C4.21677 19.631 4.12262 19.495 4.06431 19.0613C4.00212 18.5988 4 17.9711 4 17H2ZM7 20C6.02892 20 5.40121 19.9979 4.9387 19.9357C4.50496 19.8774 4.36902 19.7832 4.29289 19.7071L2.87868 21.1213C3.38834 21.631 4.01669 21.8297 4.67221 21.9179C5.29896 22.0021 6.08546 22 7 22V20ZM9 12C9.97108 12 10.5988 12.0021 11.0613 12.0643C11.495 12.1226 11.631 12.2168 11.7071 12.2929L13.1213 10.8787C12.6117 10.369 11.9833 10.1703 11.3278 10.0821C10.701 9.99788 9.91454 10 9 10V12ZM14 15C14 14.0855 14.0021 13.299 13.9179 12.6722C13.8297 12.0167 13.631 11.3883 13.1213 10.8787L11.7071 12.2929C11.7832 12.369 11.8774 12.505 11.9357 12.9387C11.9979 13.4012 12 14.0289 12 15H14ZM7 10C6.08546 10 5.29896 9.99788 4.67221 10.0821C4.01669 10.1703 3.38834 10.369 2.87868 10.8787L4.29289 12.2929C4.36902 12.2168 4.50496 12.1226 4.9387 12.0643C5.40121 12.0021 6.02892 12 7 12V10ZM4 15C4 14.0289 4.00212 13.4012 4.06431 12.9387C4.12262 12.505 4.21677 12.369 4.29289 12.2929L2.87868 10.8787C2.36902 11.3883 2.17027 12.0167 2.08214 12.6722C1.99788 13.299 2 14.0855 2 15H4Z" fill="white"/>
<path d="M5.5 7.5V7C5.5 5.11438 5.5 4.17157 6.08579 3.58579C6.67157 3 7.61438 3 9.5 3H10M21 7.5V7C21 5.11438 21 4.17157 20.4142 3.58579C19.8284 3 18.8856 3 17 3H16.5M21 14V14.5C21 16.3856 21 17.3284 20.4142 17.9142C19.8284 18.5 18.8856 18.5 17 18.5H16.5" stroke="white" stroke-width="2" stroke-linecap="round" stroke-linejoin="round"/>
</svg>

<svg width="24" height="24" fill="none" xmlns="http://www.w3.org/2000/svg"><path d="M12.414 20.414l.707.707-.707-.707zm-8.828 0l-.707.707.707-.707zm8.828-8.828l-.707.707.707-.707zM7 12h2v-2H7v2zm-3 5v-2H2v2h2zm5 3H7v2h2v-2zm3-5v2h2v-2h-2zm-3 7c.915 0 1.701.002 2.328-.082.655-.088 1.284-.287 1.793-.797l-1.414-1.414c-.076.076-.212.17-.646.229C10.6 19.998 9.971 20 9 20v2zm3-5c0 .971-.002 1.599-.064 2.061-.059.434-.153.57-.229.646l1.414 1.414c.51-.51.709-1.138.797-1.793C14.002 18.7 14 17.915 14 17h-2zM2 17c0 .915-.002 1.701.082 2.328.088.655.287 1.284.797 1.793l1.414-1.414c-.076-.076-.17-.212-.229-.646C4.002 18.6 4 17.971 4 17H2zm5 3c-.971 0-1.599-.002-2.061-.064-.434-.059-.57-.153-.646-.229l-1.414 1.414c.51.51 1.138.709 1.793.797C5.3 22.002 6.085 22 7 22v-2zm2-8c.971 0 1.599.002 2.061.064.434.059.57.153.646.229l1.414-1.414c-.51-.51-1.138-.709-1.793-.797C10.7 9.998 9.915 10 9 10v2zm5 3c0-.915.002-1.701-.082-2.328-.088-.655-.287-1.284-.797-1.793l-1.414 1.414c.076.076.17.212.229.646.062.462.064 1.09.064 2.061h2zm-7-5c-.915 0-1.701-.002-2.328.082-.655.088-1.284.287-1.793.797l1.414 1.414c.076-.076.212-.17.646-.229C5.4 12.002 6.029 12 7 12v-2zm-3 5c0-.971.002-1.599.064-2.061.059-.434.153-.57.229-.646l-1.414-1.414c-.51.51-.709 1.138-.797 1.793C1.998 13.3 2 14.085 2 15h2z" fill="#fff"/><path d="M5.5 7.5V7c0-1.886 0-2.828.586-3.414C6.672 3 7.614 3 9.5 3h.5m11 4.5V7c0-1.886 0-2.828-.586-3.414C19.828 3 18.886 3 17 3h-.5M21 14v.5c0 1.886 0 2.828-.586 3.414-.586.586-1.528.586-3.414.586h-.5" stroke="#fff" stroke-width="2" stroke-linecap="round" stroke-linejoin="round"/></svg>
